X: 1
T: Jimmy Doyle's
M: 2/4
L: 1/8
R: polka
K: Dmaj
|: c | dA/d/ e/f/e/d/ | cA AB/c/ | dA/d/ ef | ga/g/ fe |
d2 ed | cA Aa | f/g/a ge | d2 d :| 
|: e | f>=f ^fd | g>f ge | f>=f ^fa | ge c/B/A/e/ | 
f2 fd | g2 g/f/e | f/g/a ge | d2- d :|
